;Generated with Cura_SteamEngine 13.12
M140 S70.000000
M109 T0 S220.000000
T0
M190 S70.000000
;Sliced at: Fri 31-01-2014 21:23:50
;Basic settings: Layer height: 0.1 Walls: 0.5 Fill: 20
;Print time: #P_TIME#
;Filament used: #F_AMNT#m #F_WGHT#g
;Filament cost: #F_COST#
;M190 S70 ;Uncomment to add your own bed temperature line
;M109 S220 ;Uncomment to add your own temperature line
G21        ;metric values
G90        ;absolute positioning
M107       ;start with the fan off

G28 X0 Y0  ;move X/Y to min endstops
G28 Z0     ;move Z to min endstops

G1 Z15.0 F9000 ;move the platform down 15mm

G92 E0                  ;zero the extruded length
G1 F200 E3              ;extrude 3mm of feed stock
G92 E0                  ;zero the extruded length again
G1 F9000
;Put printing message on LCD screen
M117 Printing...

;Layer count: 39
;LAYER:0
M107
G0 F3600 X9.78 Y3.00 Z0.30
;TYPE:SKIRT
G1 F2400 E0.00000
G1 F1200 X9.34 Y4.66 E0.02025
G1 X9.19 Y6.38 E0.04046
G1 X9.34 Y8.09 E0.06065
G1 X9.78 Y9.74 E0.08077
G1 X10.99 Y12.29 E0.11395
G1 X10.52 Y12.52 E0.12020
G1 X10.64 Y13.88 E0.13614
G1 X10.48 Y15.72 E0.15793
G1 X9.99 Y17.52 E0.17984
G1 X9.18 Y19.24 E0.20222
G1 X8.14 Y20.72 E0.22344
G1 X6.79 Y22.06 E0.24579
G1 X5.32 Y23.09 E0.26690
G1 X3.64 Y23.87 E0.28870
G1 X1.85 Y24.35 E0.31050
G1 X0.00 Y24.51 E0.33230
G1 X-1.85 Y24.35 E0.35410
G1 X-3.65 Y23.87 E0.37601
G1 X-5.37 Y23.05 E0.39838
G1 X-6.84 Y22.02 E0.41960
G1 X-8.18 Y20.66 E0.44195
G1 X-9.21 Y19.19 E0.46306
G1 X-9.99 Y17.51 E0.48486
G1 X-10.48 Y15.72 E0.50666
G1 X-10.64 Y13.88 E0.52846
G1 X-10.52 Y12.52 E0.54439
G1 X-10.99 Y12.29 E0.55065
G1 X-9.78 Y9.74 E0.58383
G1 X-9.34 Y8.09 E0.60394
G1 X-9.19 Y6.38 E0.62414
G1 X-9.34 Y4.66 E0.64434
G1 X-9.78 Y3.00 E0.66460
G1 X-10.51 Y1.44 E0.68478
G1 X-11.50 Y0.04 E0.70498
G1 X-12.71 Y-1.18 E0.72514
G1 X-14.12 Y-2.17 E0.74544
G1 X-15.68 Y-2.89 E0.76560
G1 X-17.34 Y-3.34 E0.78585
G1 X-20.16 Y-3.58 E0.81915
G1 X-20.13 Y-4.10 E0.82525
G1 X-21.39 Y-4.70 E0.84162
G1 X-22.87 Y-5.73 E0.86286
G1 X-24.20 Y-7.09 E0.88522
G1 X-25.23 Y-8.56 E0.90632
G1 X-26.02 Y-10.24 E0.92812
G1 X-26.50 Y-12.03 E0.94993
G1 X-26.66 Y-13.88 E0.97173
G1 X-26.50 Y-15.72 E0.99351
G1 X-26.02 Y-17.51 E1.01532
G1 X-25.23 Y-19.19 E1.03714
G1 X-24.17 Y-20.71 E1.05891
G1 X-22.86 Y-22.02 E1.08070
G1 X-21.34 Y-23.09 E1.10252
G1 X-19.66 Y-23.87 E1.12431
G1 X-17.87 Y-24.35 E1.14611
G1 X-16.02 Y-24.51 E1.16791
G1 X-14.17 Y-24.35 E1.18970
G1 X-12.38 Y-23.87 E1.21150
G1 X-10.70 Y-23.09 E1.23329
G1 X-9.18 Y-22.02 E1.25511
G1 X-7.87 Y-20.71 E1.27688
G1 X-7.61 Y-20.34 E1.28218
G1 X-6.34 Y-19.07 E1.30337
G1 X-4.93 Y-18.08 E1.32359
G1 X-3.37 Y-17.35 E1.34385
G1 X-1.71 Y-16.91 E1.36400
G1 X0.00 Y-16.76 E1.38423
G1 X1.71 Y-16.91 E1.40445
G1 X3.37 Y-17.35 E1.42460
G1 X4.93 Y-18.08 E1.44486
G1 X6.34 Y-19.07 E1.46508
G1 X7.61 Y-20.34 E1.48627
G1 X7.87 Y-20.71 E1.49157
G1 X9.18 Y-22.02 E1.51334
G1 X10.70 Y-23.09 E1.53516
G1 X12.38 Y-23.87 E1.55695
G1 X14.17 Y-24.35 E1.57875
G1 X16.02 Y-24.51 E1.60054
G1 X17.87 Y-24.35 E1.62234
G1 X19.66 Y-23.87 E1.64414
G1 X21.34 Y-23.09 E1.66593
G1 X22.86 Y-22.02 E1.68775
G1 X24.17 Y-20.71 E1.70954
G1 X25.23 Y-19.19 E1.73131
G1 X26.02 Y-17.51 E1.75313
G1 X26.50 Y-15.72 E1.77494
G1 X26.66 Y-13.88 E1.79673
G1 X26.50 Y-12.03 E1.81852
G1 X26.01 Y-10.23 E1.84045
G1 X25.20 Y-8.51 E1.86281
G1 X24.16 Y-7.03 E1.88402
G1 X22.81 Y-5.69 E1.90638
G1 X21.34 Y-4.66 E1.92751
G1 X20.13 Y-4.10 E1.94321
G1 X20.16 Y-3.58 E1.94927
G1 X17.34 Y-3.34 E1.98258
G1 X15.68 Y-2.89 E2.00283
G1 X14.12 Y-2.17 E2.02298
G1 X12.71 Y-1.18 E2.04328
G1 X11.50 Y0.04 E2.06344
G1 X10.51 Y1.44 E2.08365
G1 X9.78 Y3.00 E2.10383
G1 F2400 E-2.39617
G0 F3600 X6.48 Y1.80
;TYPE:WALL-INNER
G1 F2400 E2.10383
G1 F1200 X5.88 Y4.05 E2.13125
G1 X5.68 Y6.38 E2.15867
G1 X5.88 Y8.70 E2.18607
G1 X6.41 Y10.67 E2.21006
G1 X6.35 Y10.70 E2.21084
G1 X6.69 Y11.44 E2.22047
G1 X7.01 Y12.63 E2.23500
G1 X7.12 Y13.88 E2.24964
G1 X7.01 Y15.11 E2.26428
G1 X6.69 Y16.31 E2.27882
G1 X6.14 Y17.48 E2.29399
G1 X5.46 Y18.45 E2.30796
G1 X4.54 Y19.36 E2.32323
G1 X3.56 Y20.04 E2.33721
G1 X2.44 Y20.57 E2.35182
G1 X1.24 Y20.89 E2.36637
G1 X0.00 Y21.00 E2.38101
G1 X-1.24 Y20.89 E2.39564
G1 X-2.43 Y20.57 E2.41019
G1 X-3.60 Y20.02 E2.42536
G1 X-4.57 Y19.33 E2.43932
G1 X-5.49 Y18.41 E2.45460
G1 X-6.17 Y17.44 E2.46858
G1 X-6.69 Y16.31 E2.48318
G1 X-7.01 Y15.11 E2.49774
G1 X-7.12 Y13.88 E2.51237
G1 X-7.01 Y12.63 E2.52702
G1 X-6.69 Y11.44 E2.54154
G1 X-6.35 Y10.70 E2.55118
G1 X-6.41 Y10.67 E2.55196
G1 X-5.88 Y8.70 E2.57595
G1 X-5.68 Y6.38 E2.60335
G1 X-5.88 Y4.05 E2.63076
G1 X-6.48 Y1.80 E2.65818
G1 X-7.47 Y-0.31 E2.68559
G1 X-8.81 Y-2.22 E2.71300
G1 X-10.45 Y-3.87 E2.74040
G1 X-12.36 Y-5.21 E2.76782
G1 X-14.48 Y-6.20 E2.79523
G1 X-16.45 Y-6.72 E2.81920
G1 X-16.44 Y-6.79 E2.81998
G1 X-17.26 Y-6.86 E2.82965
G1 X-18.46 Y-7.18 E2.84420
G1 X-19.62 Y-7.73 E2.85937
G1 X-20.60 Y-8.42 E2.87339
G1 X-21.50 Y-9.34 E2.88856
G1 X-22.19 Y-10.31 E2.90256
G1 X-22.72 Y-11.44 E2.91723
G1 X-23.03 Y-12.63 E2.93173
G1 X-23.14 Y-13.88 E2.94639
G1 X-23.03 Y-15.12 E2.96104
G1 X-22.72 Y-16.31 E2.97554
G1 X-22.19 Y-17.44 E2.99022
G1 X-21.48 Y-18.45 E3.00477
G1 X-20.60 Y-19.33 E3.01938
G1 X-19.58 Y-20.04 E3.03396
G1 X-18.46 Y-20.57 E3.04858
G1 X-17.26 Y-20.89 E3.06314
G1 X-16.02 Y-21.00 E3.07777
G1 X-14.78 Y-20.89 E3.09241
G1 X-13.59 Y-20.57 E3.10696
G1 X-12.46 Y-20.04 E3.12158
G1 X-11.44 Y-19.33 E3.13617
G1 X-10.57 Y-18.45 E3.15074
G1 X-10.27 Y-18.04 E3.15676
G1 X-10.20 Y-17.99 E3.15775
G1 X-8.60 Y-16.38 E3.18446
G1 X-6.69 Y-15.04 E3.21188
G1 X-4.57 Y-14.06 E3.23929
G1 X-2.32 Y-13.45 E3.26671
G1 X0.00 Y-13.25 E3.29411
G1 X2.32 Y-13.45 E3.32152
G1 X4.57 Y-14.06 E3.34894
G1 X6.69 Y-15.04 E3.37635
G1 X8.60 Y-16.38 E3.40376
G1 X10.20 Y-17.99 E3.43048
G1 X10.27 Y-18.04 E3.43146
G1 X10.57 Y-18.45 E3.43749
G1 X11.44 Y-19.33 E3.45206
G1 X12.46 Y-20.04 E3.46665
G1 X13.59 Y-20.57 E3.48126
G1 X14.78 Y-20.89 E3.49582
G1 X16.02 Y-21.00 E3.51045
G1 X17.26 Y-20.89 E3.52509
G1 X18.46 Y-20.57 E3.53965
G1 X19.58 Y-20.04 E3.55426
G1 X20.60 Y-19.33 E3.56885
G1 X21.48 Y-18.45 E3.58346
G1 X22.19 Y-17.44 E3.59801
G1 X22.72 Y-16.31 E3.61268
G1 X23.03 Y-15.12 E3.62719
G1 X23.14 Y-13.88 E3.64184
G1 X23.03 Y-12.63 E3.65649
G1 X22.72 Y-11.44 E3.67099
G1 X22.16 Y-10.27 E3.68622
G1 X21.48 Y-9.30 E3.70016
G1 X20.56 Y-8.39 E3.71542
G1 X19.58 Y-7.70 E3.72940
G1 X18.46 Y-7.18 E3.74402
G1 X17.26 Y-6.86 E3.75858
G1 X16.44 Y-6.79 E3.76825
G1 X16.45 Y-6.72 E3.76903
G1 X14.48 Y-6.20 E3.79300
G1 X12.36 Y-5.21 E3.82041
G1 X10.45 Y-3.87 E3.84783
G1 X8.81 Y-2.22 E3.87523
G1 X7.47 Y-0.31 E3.90264
G1 X6.48 Y1.80 E3.93005
G0 F3600 X3.73 Y-1.49
G1 F1200 X4.22 Y-2.19 E3.94005
G1 X4.58 Y-2.96 E3.95003
G1 X4.80 Y-3.78 E3.96003
G1 X4.88 Y-4.62 E3.97003
G1 X4.80 Y-5.47 E3.98001
G1 X4.58 Y-6.29 E3.99002
G1 X4.22 Y-7.06 E4.00000
G1 X3.73 Y-7.76 E4.01001
G1 X3.10 Y-8.39 E4.02055
G1 X2.44 Y-8.85 E4.02998
G1 X1.67 Y-9.21 E4.03996
G1 X0.85 Y-9.43 E4.04997
G1 X0.00 Y-9.50 E4.05995
G1 X-0.85 Y-9.43 E4.06994
G1 X-1.67 Y-9.21 E4.07994
G1 X-2.44 Y-8.85 E4.08993
G1 X-3.13 Y-8.36 E4.09994
G1 X-3.76 Y-7.72 E4.11047
G1 X-4.22 Y-7.06 E4.11990
G1 X-4.58 Y-6.29 E4.12989
G1 X-4.80 Y-5.47 E4.13989
G1 X-4.88 Y-4.62 E4.14988
G1 X-4.80 Y-3.78 E4.15987
G1 X-4.58 Y-2.96 E4.16988
G1 X-4.22 Y-2.19 E4.17985
G1 X-3.73 Y-1.49 E4.18986
G1 X-3.13 Y-0.89 E4.19985
G1 X-2.44 Y-0.40 E4.20984
G1 X-1.67 Y-0.04 E4.21983
G1 X-0.85 Y0.18 E4.22984
G1 X0.00 Y0.25 E4.23982
G1 X0.85 Y0.18 E4.24980
G1 X1.67 Y-0.04 E4.25981
G1 X2.44 Y-0.40 E4.26979
G1 X3.13 Y-0.89 E4.27979
G1 X3.73 Y-1.49 E4.28978
G0 F3600 X0.00 Y11.76
G1 F1200 X-1.06 Y12.05 E4.30264
G1 X-1.83 Y12.82 E4.31549
G1 X-2.11 Y13.88 E4.32836
G1 X-1.83 Y14.93 E4.34121
G1 X-1.06 Y15.70 E4.35406
G1 X0.00 Y15.99 E4.36692
G1 X1.06 Y15.70 E4.37978
G1 X1.83 Y14.93 E4.39263
G1 X2.11 Y13.88 E4.40548
G1 X1.83 Y12.82 E4.41835
G1 X1.06 Y12.05 E4.43120
G1 X0.00 Y11.76 E4.44406
G0 F3600 X14.97 Y-12.05
G1 F1200 X16.02 Y-11.76 E4.45692
G1 X17.08 Y-12.05 E4.46978
G1 X17.85 Y-12.82 E4.48264
G1 X18.13 Y-13.88 E4.49550
G1 X17.85 Y-14.93 E4.50835
G1 X17.08 Y-15.70 E4.52121
G1 X16.02 Y-15.99 E4.53407
G1 X14.97 Y-15.70 E4.54693
G1 X14.19 Y-14.93 E4.55979
G1 X13.91 Y-13.88 E4.57264
G1 X14.19 Y-12.82 E4.58551
G1 X14.97 Y-12.05 E4.59837
G0 F3600 X-13.91 Y-13.88
G1 F1200 X-14.19 Y-14.93 E4.61122
G1 X-14.97 Y-15.70 E4.62408
G1 X-16.02 Y-15.99 E4.63694
G1 X-17.08 Y-15.70 E4.64980
G1 X-17.85 Y-14.93 E4.66266
G1 X-18.13 Y-13.88 E4.67551
G1 X-17.85 Y-12.82 E4.68837
G1 X-17.08 Y-12.05 E4.70123
G1 X-16.02 Y-11.76 E4.71409
G1 X-14.97 Y-12.05 E4.72695
G1 X-14.19 Y-12.82 E4.73981
G1 X-13.91 Y-13.88 E4.75267
G0 F3600 X-14.17 Y-13.88
;TYPE:WALL-OUTER
G1 F1200 X-14.41 Y-14.80 E4.76396
G1 X-15.09 Y-15.48 E4.77524
G1 X-16.02 Y-15.73 E4.78652
G1 X-16.95 Y-15.48 E4.79782
G1 X-17.63 Y-14.80 E4.80909
G1 X-17.88 Y-13.88 E4.82037
G1 X-17.63 Y-12.95 E4.83166
G1 X-16.95 Y-12.27 E4.84294
G1 X-16.02 Y-12.02 E4.85423
G1 X-15.09 Y-12.27 E4.86552
G1 X-14.41 Y-12.95 E4.87680
G1 X-14.17 Y-13.88 E4.88809
G0 F3600 X-13.95 Y-13.82
G0 X-10.23 Y-18.03
G0 X-10.09 Y-18.21
G1 F1200 X-10.04 Y-18.17 E4.88882
G1 X-8.44 Y-16.57 E4.91547
G1 X-6.56 Y-15.26 E4.94237
G1 X-4.49 Y-14.29 E4.96926
G1 X-2.28 Y-13.70 E4.99617
G1 X0.00 Y-13.50 E5.02306
G1 X2.28 Y-13.70 E5.04995
G1 X4.49 Y-14.29 E5.07686
G1 X6.56 Y-15.26 E5.10375
G1 X8.44 Y-16.57 E5.13066
G1 X10.04 Y-18.17 E5.15730
G1 X10.09 Y-18.21 E5.15803
G1 X10.37 Y-18.62 E5.16385
G1 X11.28 Y-19.52 E5.17892
G1 X12.33 Y-20.26 E5.19407
G1 X13.50 Y-20.80 E5.20915
G1 X14.74 Y-21.14 E5.22427
G1 X16.02 Y-21.25 E5.23940
G1 X17.30 Y-21.14 E5.25452
G1 X18.55 Y-20.80 E5.26964
G1 X19.71 Y-20.26 E5.28472
G1 X20.76 Y-19.52 E5.29987
G1 X21.67 Y-18.62 E5.31494
G1 X22.41 Y-17.56 E5.33007
G1 X22.95 Y-16.40 E5.34516
G1 X23.28 Y-15.16 E5.36028
G1 X23.40 Y-13.88 E5.37541
G1 X23.28 Y-12.59 E5.39055
G1 X22.95 Y-11.35 E5.40563
G1 X22.38 Y-10.15 E5.42133
G1 X21.67 Y-9.14 E5.43583
G1 X20.72 Y-8.20 E5.45155
G1 X19.71 Y-7.49 E5.46608
G1 X18.55 Y-6.95 E5.48116
G1 X17.30 Y-6.61 E5.49628
G1 X16.71 Y-6.56 E5.50331
G1 X16.71 Y-6.53 E5.50362
G1 X14.56 Y-5.96 E5.52974
G1 X12.49 Y-4.99 E5.55664
G1 X10.61 Y-3.68 E5.58354
G1 X9.00 Y-2.06 E5.61043
G1 X7.68 Y-0.19 E5.63733
G1 X6.72 Y1.88 E5.66422
G1 X6.13 Y4.09 E5.69112
G1 X5.93 Y6.38 E5.71803
G1 X6.13 Y8.65 E5.74492
G1 X6.70 Y10.80 E5.77105
G1 X6.68 Y10.81 E5.77137
G1 X6.93 Y11.35 E5.77834
G1 X7.26 Y12.59 E5.79346
G1 X7.37 Y13.88 E5.80860
G1 X7.26 Y15.16 E5.82373
G1 X6.93 Y16.40 E5.83885
G1 X6.36 Y17.60 E5.85450
G1 X5.65 Y18.61 E5.86901
G1 X4.70 Y19.55 E5.88474
G1 X3.69 Y20.26 E5.89926
G1 X2.52 Y20.80 E5.91434
G1 X1.28 Y21.14 E5.92946
G1 X0.00 Y21.25 E5.94459
G1 X-1.28 Y21.14 E5.95972
G1 X-2.52 Y20.80 E5.97484
G1 X-3.73 Y20.23 E5.99049
G1 X-4.74 Y19.52 E6.00500
G1 X-5.68 Y18.57 E6.02073
G1 X-6.39 Y17.56 E6.03525
G1 X-6.93 Y16.40 E6.05033
G1 X-7.26 Y15.16 E6.06545
G1 X-7.37 Y13.88 E6.08058
G1 X-7.26 Y12.59 E6.09572
G1 X-6.93 Y11.35 E6.11084
G1 X-6.68 Y10.81 E6.11781
G1 X-6.70 Y10.80 E6.11813
G1 X-6.13 Y8.65 E6.14426
G1 X-5.93 Y6.38 E6.17115
G1 X-6.13 Y4.09 E6.19806
G1 X-6.72 Y1.88 E6.22496
G1 X-7.68 Y-0.19 E6.25185
G1 X-9.00 Y-2.06 E6.27874
G1 X-10.61 Y-3.68 E6.30564
G1 X-12.49 Y-4.99 E6.33254
G1 X-14.56 Y-5.96 E6.35944
G1 X-16.71 Y-6.53 E6.38556
G1 X-16.71 Y-6.56 E6.38587
G1 X-17.30 Y-6.61 E6.39290
G1 X-18.55 Y-6.95 E6.40802
G1 X-19.75 Y-7.51 E6.42367
G1 X-20.76 Y-8.22 E6.43820
G1 X-21.70 Y-9.18 E6.45392
G1 X-22.41 Y-10.19 E6.46844
G1 X-22.95 Y-11.35 E6.48352
G1 X-23.28 Y-12.59 E6.49864
G1 X-23.40 Y-13.88 E6.51378
G1 X-23.28 Y-15.16 E6.52891
G1 X-22.95 Y-16.40 E6.54402
G1 X-22.41 Y-17.56 E6.55911
G1 X-21.67 Y-18.62 E6.57424
G1 X-20.76 Y-19.52 E6.58931
G1 X-19.71 Y-20.26 E6.60446
G1 X-18.55 Y-20.80 E6.61954
G1 X-17.30 Y-21.14 E6.63466
G1 X-16.02 Y-21.25 E6.64979
G1 X-14.74 Y-21.14 E6.66492
G1 X-13.50 Y-20.80 E6.68004
G1 X-12.33 Y-20.26 E6.69512
G1 X-11.28 Y-19.52 E6.71026
G1 X-10.37 Y-18.62 E6.72533
G1 X-10.09 Y-18.21 E6.73115
G0 F3600 X-10.23 Y-18.03
G0 X-3.10 Y-8.35
G0 X-2.97 Y-8.17
G1 F1200 X-3.57 Y-7.56 E6.74118
G1 X-4.01 Y-6.94 E6.75010
G1 X-4.35 Y-6.21 E6.75958
G1 X-4.55 Y-5.43 E6.76906
G1 X-4.62 Y-4.62 E6.77854
G1 X-4.55 Y-3.82 E6.78803
G1 X-4.35 Y-3.04 E6.79751
G1 X-4.01 Y-2.31 E6.80698
G1 X-3.54 Y-1.65 E6.81646
G1 X-2.97 Y-1.08 E6.82594
G1 X-2.31 Y-0.62 E6.83542
G1 X-1.58 Y-0.28 E6.84490
G1 X-0.80 Y-0.07 E6.85438
G1 X0.00 Y0.00 E6.86385
G1 X0.80 Y-0.07 E6.87333
G1 X1.58 Y-0.28 E6.88281
G1 X2.31 Y-0.62 E6.89229
G1 X2.97 Y-1.08 E6.90177
G1 X3.54 Y-1.65 E6.91125
G1 X4.01 Y-2.31 E6.92073
G1 X4.35 Y-3.04 E6.93020
G1 X4.55 Y-3.82 E6.93968
G1 X4.62 Y-4.62 E6.94917
G1 X4.55 Y-5.43 E6.95865
G1 X4.35 Y-6.21 E6.96813
G1 X4.01 Y-6.94 E6.97761
G1 X3.54 Y-7.60 E6.98709
G1 X2.93 Y-8.19 E6.99711
G1 X2.31 Y-8.63 E7.00603
G1 X1.58 Y-8.97 E7.01551
G1 X0.80 Y-9.18 E7.02499
G1 X0.00 Y-9.25 E7.03447
G1 X-0.80 Y-9.18 E7.04395
G1 X-1.58 Y-8.97 E7.05343
G1 X-2.31 Y-8.63 E7.06291
G1 X-2.97 Y-8.17 E7.07239
G0 F3600 X-3.10 Y-8.35
G0 X-1.69 Y-9.28
G0 X0.00 Y-9.58
G0 X14.26 Y-12.79
G0 X14.41 Y-12.95
G1 F1200 X15.09 Y-12.27 E7.08367
G1 X16.02 Y-12.02 E7.09495
G1 X16.95 Y-12.27 E7.10625
G1 X17.63 Y-12.95 E7.11752
G1 X17.88 Y-13.88 E7.12881
G1 X17.63 Y-14.80 E7.14009
G1 X16.95 Y-15.48 E7.15137
G1 X16.02 Y-15.73 E7.16266
G1 X15.09 Y-15.48 E7.17395
G1 X14.41 Y-14.80 E7.18523
G1 X14.17 Y-13.88 E7.19651
G1 X14.41 Y-12.95 E7.20780
G0 F3600 X14.26 Y-12.79
G0 X0.99 Y12.05
G0 X0.93 Y12.27
G1 F1200 X0.00 Y12.02 E7.21909
G1 X-0.93 Y12.27 E7.23037
G1 X-1.61 Y12.95 E7.24165
G1 X-1.85 Y13.88 E7.25294
G1 X-1.61 Y14.80 E7.26423
G1 X-0.93 Y15.48 E7.27550
G1 X0.00 Y15.73 E7.28678
G1 X0.93 Y15.48 E7.29807
G1 X1.61 Y14.80 E7.30934
G1 X1.85 Y13.88 E7.32063
G1 X1.61 Y12.95 E7.33192
G1 X0.93 Y12.27 E7.34319
G0 F3600 X0.73 Y11.86
;TYPE:FILL
G1 F1200 X-5.67 Y5.47 E7.44952
G0 F3600 X-5.63 Y5.86
G1 F1200 X0.25 Y11.73 E7.54726
G0 F3600 X-0.14 Y11.71
G1 F1200 X-5.60 Y6.24 E7.63807
G0 F3600 X-5.61 Y6.59
G1 F1200 X-0.41 Y11.78 E7.72439
G0 F3600 X-0.69 Y11.86
G1 F1200 X-5.64 Y6.91 E7.80653
G0 F3600 X-5.66 Y7.24
G1 F1200 X-0.97 Y11.93 E7.88451
G0 F3600 X-1.20 Y12.06
G1 F1200 X-5.69 Y7.57 E7.95925
G0 F3600 X-5.72 Y7.89
G1 F1200 X-1.37 Y12.24 E8.03152
G0 F3600 X-1.55 Y12.41
G1 F1200 X-5.75 Y8.22 E8.10131
G0 F3600 X-5.78 Y8.54
G1 F1200 X-1.73 Y12.59 E8.16865
G0 F3600 X-1.90 Y12.77
G1 F1200 X-5.83 Y8.84 E8.23388
G0 F3600 X-5.90 Y9.12
G1 F1200 X-1.98 Y13.05 E8.29911
G0 F3600 X-2.05 Y13.32
G1 F1200 X-5.98 Y9.40 E8.36433
G0 F3600 X-6.05 Y9.68
G1 F1200 X-2.13 Y13.60 E8.42956
G0 F3600 X-2.20 Y13.89
G1 F1200 X-6.13 Y9.96 E8.49488
G0 F3600 X-6.20 Y10.24
G1 F1200 X-2.07 Y14.37 E8.56361
G0 F3600 X-1.94 Y14.85
G1 F1200 X-6.28 Y10.52 E8.63573
G0 F3600 X-6.32 Y10.83
G1 F1200 X3.04 Y20.19 E8.79128
G0 F3600 X3.28 Y20.08
G1 F1200 X-0.98 Y15.81 E8.86213
G0 F3600 X-0.50 Y15.94
G1 F1200 X3.52 Y19.96 E8.92896
G0 F3600 X3.73 Y19.82
G1 F1200 X-0.01 Y16.07 E8.99122
G0 F3600 X0.27 Y16.00
G1 F1200 X3.94 Y19.67 E9.05221
G0 F3600 X4.15 Y19.53
G1 F1200 X0.55 Y15.93 E9.11200
G0 F3600 X0.83 Y15.85
G1 F1200 X4.35 Y19.38 E9.17063
G0 F3600 X4.55 Y19.22
G1 F1200 X1.11 Y15.78 E9.22790
G0 F3600 X1.28 Y15.60
G1 F1200 X4.73 Y19.05 E9.28518
G0 F3600 X4.91 Y18.87
G1 F1200 X1.46 Y15.42 E9.34248
G0 F3600 X1.64 Y15.25
G1 F1200 X5.08 Y18.69 E9.39979
G0 F3600 X5.26 Y18.52
G1 F1200 X1.81 Y15.07 E9.45711
G0 F3600 X1.94 Y14.85
G1 F1200 X5.43 Y18.33 E9.51513
G0 F3600 X5.58 Y18.13
G1 F1200 X2.02 Y14.57 E9.57432
G0 F3600 X2.09 Y14.29
G1 F1200 X5.72 Y17.92 E9.63472
G0 F3600 X5.87 Y17.71
G1 F1200 X2.16 Y14.01 E9.69630
G0 F3600 X2.14 Y13.63
G1 F1200 X6.01 Y17.50 E9.76078
G0 F3600 X6.14 Y17.28
G1 F1200 X2.01 Y13.14 E9.82951
G0 F3600 X6.71 Y11.84
G1 F1200 X-17.08 Y-11.95 E10.22505
G0 F3600 X-16.60 Y-11.83
G1 F1200 X6.54 Y11.31 E10.60970
G0 F3600 X6.24 Y10.65
G1 F1200 X-16.12 Y-11.70 E10.98132
G0 F3600 X-15.80 Y-11.73
G1 F1200 X6.21 Y10.28 E11.34723
G0 F3600 X6.08 Y9.80
G1 F1200 X-15.52 Y-11.81 E11.70637
G0 F3600 X-15.24 Y-11.88
G1 F1200 X5.95 Y9.31 E12.05870
G0 F3600 X5.82 Y8.83
G1 F1200 X-14.96 Y-11.95 E12.40424
G0 F3600 X-14.77 Y-12.11
G1 F1200 X5.77 Y8.42 E12.74563
G0 F3600 X5.73 Y8.03
